T: Schottis Från Norrbotten
M: 2/4
L: 1/8
K: Dmin
E2 E>F G G>A | B B>c B2 G2 | e2 e>f g2 f2 | e4- e>Be>f |g2 (3fgf e2 B>c |d2 (3cdc B2 G>A | B>cB>A G2 A2 | F4- F>Be>f |g2 f2 e2 B>c |d2 c2 B2 G>A | B>cB>A G2 F2 | E4- E> :|B>GE>G B>GE>G | B2 (3efe d2 c2 | B>cB>A G2 A2 | B4- B>d^c>d |B>GE>G B>GE>G | B2 e2 (3ded c2 | B>cB>A G2 F2 | E4- E> :|D2 D>E F2 F>G | A2 A>B A4 | d2 d>e (3fgf e>f | d4- d>Ad>e |f2 e2 d2 A>B | c2 B2 A2 F>G | A2 A>G F2 G2 | A6 d>e |f2 e2 d2 A>B | c>dc>B A2 F2 | A>BA>G F2 E2 | D6 ::A>FD>F A>FD>F | A2 d2 c2 B2 | A2 A>G F2 G2 | A6 A2 |A>FD>F A>FD>F | A2 (3ded c2 (3BcB | A>BA>G F2 E2 | D6 :|
